!!!!SEGMENT: pl-cz--ii-15--002_szlagorski-walenty--mazur.krn
!!!cenid: 18xx:1152a
!!!COM: Szlagórski, Walenty
!!!COM-rismid: pe30111815
!!!CDT: 1801-1863/07/16
!!!CNT: Polish
!!!OTL: Mazur
!!!PDT:
!!!AGN: Secular; Mazurka
!!!SMS-siglum: PL-CZ
!!!SMS-shelfmark: II-15
!!!SMS-shelfwork: 002 W
!!!SMS-variant:
!!!SMS-altvar:
!!!NIFC-rismid: 300001523
!!!URL-scan: http://repozytorium.nifc.pl/skany/pl-cz-nut--ii-15
!!!ONB-nifc: UWAGA: części: 1. Mazur (Morawski), 2. Mazur (Szlagórski), 3. Walc 1, 4. Walc 2, 5. Walc 3, 6. Walc 4, 7. Walc 5, 8. Mazur (Studziński), 9. Kotylion (Szlagórski), 10. Gallop (Szlagórski), 11. Mazur (Smacierzyński). UWAGA: dalsza część partii Basso z tyłu okładki
**kern	**dynam	**kern	**dynam	**kern	**dynam	**kern	**dynam	**kern	**dynam	**kern	**dynam	**kern	**dynam	**kern	**dynam
*group3	*	*group3	*	*group3	*	*group2	*	*group2	*	*group1	*	*group1	*	*group1	*
*part8	*part8	*part7	*part7	*part6	*part6	*part5	*part5	*part4	*part4	*part3	*part3	*part2	*part2	*part1	*part1
*staff8	*	*staff7	*	*staff6	*	*staff5	*	*staff4	*	*staff3	*	*staff2	*	*staff1	*
*I"Baſso	*	*I"Violino 2do	*	*I"Violino 1mo	*	*I"Clarino in G.	*	*I"Corno 1mo in D.	*	*I"Clarinetto 2do in C	*	*I"Clarnetto 1mo in C.	*	*I"Flauto Primo	*
*I'[Cb]	*	*I'[Vl 2]	*	*I'[Vl 1]	*	*I'[Clno in G]	*	*I'[Cor 1 in D]	*	*I'[Cl 2 in C]	*	*I'[Cl 1 in C]	*	*I'[Fl 1]	*
*clefF4	*	*clefG2	*	*clefG2	*	*clefG2	*	*clefG2	*	*clefG2	*	*clefG2	*	*clefG2	*
*	*	*	*	*	*	*ITrd-1c-2	*	*ITrd6c10	*	*	*	*	*	*	*
*k[f#c#]	*	*k[f#c#]	*	*k[f#c#]	*	*k[f#c#]	*	*k[f#c#]	*	*k[f#c#]	*	*k[f#c#]	*	*k[f#c#]	*
*D:	*	*D:	*	*D:	*	*D:	*	*D:	*	*D:	*	*D:	*	*D:	*
*M3/8	*	*M3/8	*	*M3/8	*	*M3/8	*	*M3/8	*	*M3/8	*	*M3/8	*	*M3/8	*
*kcancel	*	*kcancel	*	*kcancel	*	*kcancel	*	*kcancel	*	*kcancel	*	*kcancel	*	*kcancel	*
*>[A,A,B,B,C,C]	*	*>[A,A,B,B,C,C]	*	*>[A,A,B,B,C,C]	*	*>[A,A,B,B,C,C]	*	*>[A,A,B,B,C,C]	*	*>[A,A,B,B,C,C]	*	*>[A,A,B,B,C,C]	*	*>[A,A,B,B,C,C]	*
=1	=1	=1	=1	=1	=1	=1	=1	=1	=1	=1	=1	=1	=1	=1	=1
*>A	*	*>A	*	*>A	*	*>A	*	*>A	*	*>A	*	*>A	*	*>A	*
!	!	!	!	!	!	!	!	!	!	!	!	!	!	!LO:TX:a:t=4	!
!LO:TX:a:t=Mazur	!	!	!	!LO:TX:a:t=Mazur	!	!LO:TX:a:t=Mazur	!	!LO:TX:a:t=Mazur	!	!LO:TX:a:t=Mazur	!	!LO:TX:a:t=Mazur	!	!LO:TX:a:t=Mazur	!
!LO:TX:a:t=Szlagorski	!LO:DY:rj	!LO:TX:a:t=Szlagórski Mazur	!	!LO:TX:a:t=Szlagorski	!LO:DY:rj	!LO:TX:a:t=Szlagorskiego in D.	!LO:DY:rj	!LO:TX:a:t=Szlagorski	!	!LO:TX:a:t=Szlagorskiego	!	!LO:TX:a:t=Szlagorski	!	!LO:TX:a:t=Szlagorski	!
4D\	p	8r	.	8a\L	p	8r	p	8r	p	8r	p	8a\L	.	4.r	.
!	!	!	!	!LO:SIC:s=16.dd	!	!	!	!	!	!	!	!	!	!	!
.	.	8f#/L 8a	.	16dd\L	.	8d/L	.	8f#\L	.	8f#/L	.	16.dd\L	.	.	.
.	.	.	.	32ryy	.	.	.	.	.	.	.	.	.	.	.
.	.	.	.	32ee\JJk	.	.	.	.	.	.	.	32ee\JJk	.	.	.
8r	.	8f#/J 8a	.	8ff#^<\	.	8d/J	.	8f#\J	.	8a/J	.	8ff#\	.	.	.
=2	=2	=2	=2	=2	=2	=2	=2	=2	=2	=2	=2	=2	=2	=2	=2
4D\	.	8r	.	8dd\L	.	8r	.	8r	.	8r	.	8dd\L	.	4.r	.
.	.	8f#/L 8a	.	16.ff#\L	.	8d/L	.	8f#\L	.	8a\L	.	16.ff#\L	.	.	.
.	.	.	.	32gg\JJk	.	.	.	.	.	.	.	32gg\JJk	.	.	.
8r	.	8f#/J 8a	.	8aa^<\	.	8d/J	.	8f#\J	.	8dd\J	.	8aa\	.	.	.
=3	=3	=3	=3	=3	=3	=3	=3	=3	=3	=3	=3	=3	=3	=3	=3
4AA\ 4A	.	8r	.	8aa^<\L	.	8r	.	8r	.	8r	.	8aa\L	.	4.r	.
.	.	8g/L 8a	.	16.gg\L	.	8A/L	.	8e\L	.	8cc#\L	.	16.gg\L	.	.	.
.	.	.	.	32ee\JJk	.	.	.	.	.	.	.	32ee\JJk	.	.	.
8r	.	8g/J 8a	.	8cc#\	.	8A/J	.	8e\J	.	8g\J	.	8cc#\	.	.	.
=4	=4	=4	=4	=4	=4	=4	=4	=4	=4	=4	=4	=4	=4	=4	=4
.	.	.	.	8qdd/	.	.	.	.	.	.	.	.	.	.	.
4D\	.	8r	.	8ddd\L	.	8r	.	8r	.	8r	.	8ddd\L	.	4.r	.
.	.	8f#/L 8a	.	16.aa\L	.	8d/L	.	8f#\L	.	8f#/L	.	16.aa\L	.	.	.
.	.	.	.	32ff#\JJk	.	.	.	.	.	.	.	32ff#\JJk	.	.	.
8r	.	8f#/J 8a	.	8dd\	ff	8d/J	.	8f#\J	.	8a/J	.	8dd\	.	.	.
!	!	!	!	!LO:LB:g=original	!	!	!	!	!	!	!	!	!	!	!
=5	=5	=5	=5	=5	=5	=5	=5	=5	=5	=5	=5	=5	=5	=5	=5
*	*	*tremolo	*	*	*	*tremolo	*	*tremolo	*	*	*	*	*	*	*
!	!LO:DY:rj	!	!LO:DY:rj	!	!LO:DY:rj	!	!LO:DY:rj	!	!LO:DY:rj	!	!LO:DY:rj	!	!	!	!LO:DY:rj
8D\L	ff	8f#/ 8aL	ff	16.f#\LL 16.dd	f	8d/L	ff	8f#\L	f	16.f#/LL	f	16.dd\LL	.	16.dd\LL	f
.	.	.	.	32cc#\JJk 32ee	.	.	.	.	.	32cc#/JJk	.	32ee\K	f	32ee\K	.
8d\	.	8f#/ 8a	.	16.dd\LL 16.ff#	.	8d/	.	8f#\	.	16.dd\LL	.	16.ff#\	.	16.ff#\	.
.	.	.	.	32ee\JJk 32gg	.	.	.	.	.	32ee\K	.	32gg\K	.	32gg\K	.
8d\J	.	8f#/ 8aJ	.	16.ff#\LL 16.aa	.	8d/J	.	8f#\J	.	16.ff#\	.	16.aa\	.	16.aa\	.
.	.	.	.	32gg\JJk 32bb	.	.	.	.	.	32gg\JJk	.	32bb\JJk	.	32bb\JJk	.
*	*	*Xtremolo	*	*	*	*Xtremolo	*	*Xtremolo	*	*	*	*	*	*	*
!	!	!	!	!	!	!	!	!	!	!	!	!LO:LB:g=original	!	!	!
=6	=6	=6	=6	=6	=6	=6	=6	=6	=6	=6	=6	=6	=6	=6	=6
8D\	.	8f#/ 8a	.	32cc#\KLL 32aa	.	8d/	.	8f#\	.	8ff#\	.	8aa\	.	32aa\KLL	.
.	.	.	.	16.fff#\JJ	.	.	.	.	.	.	.	.	.	16.fff#\JJ	.
4D^<\ 4d	.	4f#^</ 4a	.	4ddd\	.	4dd^<\	.	4f#\	.	4ff#^<\	.	4aa^<\	.	4ddd\	.
=7	=7	=7	=7	=7	=7	=7	=7	=7	=7	=7	=7	=7	=7	=7	=7
*	*	*	*	*	*	*tremolo	*	*tremolo	*	*tremolo	*	*	*	*	*
8A\L	.	8r	.	16.bb\LL	.	8a/L	.	8e\L	.	8g/L	.	8cc#\L	.	16.bb\LL	.
.	.	.	.	32aa\JJk	.	.	.	.	.	.	.	.	.	32aa\K	.
8A\	.	8g/L 8a	.	16.gg#X\LL	.	8a/	.	8e\	.	8g/	.	8cc#\	.	16.gg#X\	.
.	.	.	.	32aa\JJk	.	.	.	.	.	.	.	.	.	32aa\K	.
8A\J	.	8g/J 8a	.	16.ee\LL	.	8a/J	.	8e\J	.	8g/J	.	8cc#\J	.	16.ee\	.
.	.	.	.	32ggn\JJk	.	.	.	.	.	.	.	.	.	32ggn\JJk	.
*	*	*	*	*	*	*Xtremolo	*	*Xtremolo	*	*Xtremolo	*	*	*	*	*
!	!	!LO:LB:g=original	!	!	!	!	!	!	!	!	!	!	!	!LO:LB:g=original	!
=8	=8	=8	=8	=8	=8	=8	=8	=8	=8	=8	=8	=8	=8	=8	=8
8D\ 8d	.	8f#/ 8a	.	16.ff#\LL	.	8dd\	.	8d\	.	8f#/	.	8dd\	.	16.ff#\LL	.
.	.	.	.	32cc#\JJk	.	.	.	.	.	.	.	.	.	32ccc#\JJk	.
4D\	.	4f#/ 4a	.	4dd\	.	4d^</	.	4d\	.	4f#/	.	4dd\	.	4ddd\	.
!LO:LB:g=original	!	!	!	!	!	!	!	!	!	!	!	!	!	!	!
=9:|!|:	=9:|!|:	=9:|!|:	=9:|!|:	=9:|!|:	=9:|!|:	=9:|!|:	=9:|!|:	=9:|!|:	=9:|!|:	=9:|!|:	=9:|!|:	=9:|!|:	=9:|!|:	=9:|!|:	=9:|!|:
*	*	*	*	*^	*	*	*	*	*	*	*	*	*	*	*
*>B	*	*>B	*	*>B	*>B	*	*>B	*	*>B	*	*>B	*	*>B	*	*>B	*
*	*	*	*	*Xtuplet	*	*	*	*	*	*	*	*	*Xtuplet	*	*	*
!	!LO:DY:rj	!	!	!	!	!	!LO:TX:a:t=4	!	!LO:TX:a:t=2	!	!LO:TX:a:t=4	!	!	!	!LO:TUP:a	!
4A\	p	8r	.	24ee/LL	8r	p	4.r	.	4.r	.	4.r	.	24ee\LL	.	24eee\LL	.
.	.	.	.	24ff#/	.	.	.	.	.	.	.	.	24ff#\	.	24fff#\	.
.	.	.	.	24ee/JJ	.	.	.	.	.	.	.	.	24ee\JJ	.	24eee\JJ	.
!	!	!	!LO:DY:rj	!	!	!	!	!	!	!	!	!	!	!	!	!
.	.	8c#/L 8e	p	8cc#/L	8c#\L 8e	.	.	.	.	.	.	.	8cc#\L	.	8ccc#\L	.
8r	.	8c#/J 8e	.	8ee/J	8c#\J 8e	.	.	.	.	.	.	.	8ee\J	.	8eee\J	.
!	!	!	!	!LO:LB:g=original	!LO:LB:g=original	!	!	!	!	!	!	!	!	!	!	!
=10	=10	=10	=10	=10	=10	=10	=10	=10	=10	=10	=10	=10	=10	=10	=10	=10
4AA\ 4A	.	8r	.	16.aa/LL	8r	.	4.r	.	4.r	.	4.r	.	16.aa\LL	.	16.aaa\LL	.
.	.	.	.	32cc#/JJk	.	.	.	.	.	.	.	.	32cc#\JJk	.	32ccc#\JJk	.
!	!	!	!	!LO:SIC:s=8.ee	!	!	!	!	!	!	!	!	!LO:SIC:s=8.ee	!	!	!
.	.	8c#/L 8e	.	8ee/L	8a\L	.	.	.	.	.	.	.	8ee\L	.	8.eee\L	.
8r	.	8c#/J 8e	.	16ryy	8a\J	.	.	.	.	.	.	.	16ryy	.	.	.
.	.	.	.	16a/Jk	.	.	.	.	.	.	.	.	16a\Jk	.	16aa\Jk	.
=11	=11	=11	=11	=11	=11	=11	=11	=11	=11	=11	=11	=11	=11	=11	=11	=11
4D\	.	8r	.	8ee/	8r	.	4.r	.	8r	.	4.r	.	8ee^<\L	.	8eee\L	.
.	.	8B/L 8d	.	16.dd/LL	8g#X\L	.	.	.	8e\L	.	.	.	16.dd\L	.	16.ddd\L	.
.	.	.	.	32b/JJk	.	.	.	.	.	.	.	.	32b\JJk	.	32bb\JJk	.
!	!	!	!	!	!LO:TX:t=P:problem:note position	!	!	!	!	!	!	!	!	!	!	!
8r	.	8B/J 8d	.	8g#X/	8g#\J	.	.	.	8e\J	.	.	.	8g#X/	.	8gg#X\	.
=12	=12	=12	=12	=12	=12	=12	=12	=12	=12	=12	=12	=12	=12	=12	=12	=12
4A\	.	8r	.	8ff#/L	8r	.	4.r	.	8r	.	4.r	.	8ff#^<\L	.	8fff#\L	.
.	.	8c#/L 8e	.	16.ee/L	8a\L	.	.	.	8e\L	.	.	.	16.ee\L	.	16.eee\L	.
.	.	.	.	32cc#/JJk	.	.	.	.	.	.	.	.	32cc#\JJk	.	32ccc#\JJk	.
8r	.	8c#/J 8e	.	8a/	8a\J	.	.	.	8e\J	.	.	.	8a\	.	8aa\	.
!	!	!	!	!	!	!	!	!	!LO:LB:g=original	!	!LO:LB:g=original	!	!LO:LB:g=original	!	!LO:LB:g=original	!
*	*	*	*	*v	*v	*	*	*	*	*	*	*	*	*	*	*
=13	=13	=13	=13	=13	=13	=13	=13	=13	=13	=13	=13	=13	=13	=13	=13
!!mixed beam:problem
*	*	*tremolo	*	*	*	*tremolo	*	*tremolo	*	*	*	*	*	*	*
!LO:TX:t=P:problem:mixed beam	!	!	!LO:DY:rj	!	!LO:DY:rj	!	!	!	!	!	!	!	!	!LO:TX:a:t=8	!
8AA/L	.	8c#/ 8eL	f	16.a\LL	ff	8a/L	.	8e\L	.	16.a/LL	.	16.a\LL	.	4.r	.
.	.	.	.	32b\K	.	.	.	.	.	32g#X/JJk	.	32b\K	.	.	.
8A\	.	8c#/ 8e	.	16.cc#\	.	8a/	.	8e\	.	16.a\LL	.	16.cc#\	.	.	.
.	.	.	.	32dd\K	.	.	.	.	.	32b\K	.	32dd\K	.	.	.
8A\J	.	8c#/ 8eJ	.	16.ee\	.	8a/J	.	8e\J	.	16.cc#\	.	16.ee\	.	.	.
.	.	.	.	32ff#\JJk	.	.	.	.	.	32dd\JJk	.	32ff#\JJk	.	.	.
*	*	*	*	*	*	*Xtremolo	*	*Xtremolo	*	*	*	*	*	*	*
=14	=14	=14	=14	=14	=14	=14	=14	=14	=14	=14	=14	=14	=14	=14	=14
8AA/	.	8c#/ 8eL	.	16.ee\LL	.	8a/	.	8e\	.	8cc#\	.	8ee\	.	4.r	.
.	.	.	.	32aa\JJk	.	.	.	.	.	.	.	.	.	.	.
4A^<\	.	8c#/ 8e	.	8.ccc#\L	.	4a^</	.	4e\	.	4cc#\	.	4ee\	.	.	.
.	.	8c#/ 8eJ	.	.	.	.	.	.	.	.	.	.	.	.	.
.	.	.	.	16aa\Jk	.	.	.	.	.	.	.	.	.	.	.
*	*	*Xtremolo	*	*	*	*	*	*	*	*	*	*	*	*	*
!	!	!	!	!LO:LB:g=original	!	!LO:LB:g=original	!	!	!	!	!	!	!	!	!
=15	=15	=15	=15	=15	=15	=15	=15	=15	=15	=15	=15	=15	=15	=15	=15
*	*	*	*	*	*	*tremolo	*	*tremolo	*	*	*	*	*	*	*
8E\L	.	4.c#/ 4.e	.	16.ccc#\LL	.	8ee\L	.	8e\L	.	8dd\	.	8gg#X\L	.	4.r	.
.	.	.	.	32bb\JJk	.	.	.	.	.	.	.	.	.	.	.
8E\	.	.	.	16.gg#X\LL	.	8ee\	.	8e\	.	4dd\	.	16.gg#\L	.	.	.
.	.	.	.	32ee\K	.	.	.	.	.	.	.	32ee\K	.	.	.
8E\J	.	.	.	16.ff#\	.	8ee\J	.	8e\J	.	.	.	16.ff#\	.	.	.
.	.	.	.	32gg#\JJk	.	.	.	.	.	.	.	32gg#\JJk	.	.	.
*	*	*	*	*	*	*Xtremolo	*	*Xtremolo	*	*	*	*	*	*	*
=16	=16	=16	=16	=16	=16	=16	=16	=16	=16	=16	=16	=16	=16	=16	=16
*	*	*tremolo	*	*	*	*	*	*	*	*	*	*	*	*	*
!!mixed beam:problem
!LO:TX:t=P:problem:mixed beam	!	!	!	!	!	!	!	!	!	!	!	!	!	!	!
8A\L	.	8c#/ 8eL	.	16.aa\LL	.	8a/	.	8e\	.	8cc#\	.	16.aa\LL	.	4.r	.
.	.	.	.	32gg#X\JJk	.	.	.	.	.	.	.	32gg#X\K	.	.	.
8AA/J	.	8c#/ 8e	.	16.bb\LL	.	4a^</	.	4e\	.	4cc#\	.	16.bb\	.	.	.
.	.	.	.	32aa\K	.	.	.	.	.	.	.	32aa\K	.	.	.
8r	.	8c#/ 8eJ	.	16.ggn\	.	.	.	.	.	.	.	16.ggn\	.	.	.
.	.	.	.	32ee\JJk	.	.	.	.	.	.	.	32ee\JJk	.	.	.
*	*	*Xtremolo	*	*	*	*	*	*	*	*	*	*	*	*	*
=17	=17	=17	=17	=17	=17	=17	=17	=17	=17	=17	=17	=17	=17	=17	=17
!	!	!	!	!	!LO:DY:rj	!	!	!	!	!	!	!	!	!	!
4D\	.	8r	.	8a\L	p	8r	.	8r	.	8r	.	4.ryy	.	4.r	.
.	.	8f#/L 8a	.	16.dd\L	.	8d/L	.	8f#\L	.	8f#/L	.	.	.	.	.
.	.	.	.	32ee\JJk	.	.	.	.	.	.	.	.	.	.	.
8r	.	8f#/J 8a	.	8ff#^<\	.	8d/J	.	8f#\J	.	8a/J	.	.	.	.	.
!	!	!LO:LB:g=original	!	!	!	!	!	!	!	!	!	!	!	!	!
=18	=18	=18	=18	=18	=18	=18	=18	=18	=18	=18	=18	=18	=18	=18	=18
4D\	.	8r	.	8dd\L	.	8r	.	8r	.	8r	.	8dd\L	.	4.r	.
.	.	8f#/L 8a	.	16.ff#\L	.	8d/L	.	8f#\L	.	8a\L	.	16.ff#\L	.	.	.
.	.	.	.	32gg\JJk	.	.	.	.	.	.	.	32gg\JJk	.	.	.
8r	.	8f#/J 8a	.	8aa^<\	.	8d/J	.	8f#\J	.	8dd\J	.	8aa\	.	.	.
=19	=19	=19	=19	=19	=19	=19	=19	=19	=19	=19	=19	=19	=19	=19	=19
4A\	.	8r	.	8.aa^<\L	.	8r	.	8r	.	8r	.	8aa\L	.	4.r	.
.	.	8g/L 8a	.	.	.	8a/L	.	8e\L	.	8cc#\L	.	16.gg\L	.	.	.
.	.	.	.	32gg\LL	.	.	.	.	.	.	.	.	.	.	.
.	.	.	.	32ee\JJJ	.	.	.	.	.	.	.	32ee\JJk	.	.	.
8r	.	8g/J 8a	.	8cc#\	.	8a/J	.	8e\J	.	8g\J	.	8cc#\	.	.	.
!	!	!	!	!	!	!	!	!	!	!	!	!LO:LB:g=original	!	!	!
=20	=20	=20	=20	=20	=20	=20	=20	=20	=20	=20	=20	=20	=20	=20	=20
.	.	.	.	8qdd/	.	.	.	.	.	.	.	8qdd/	.	.	.
4D\	.	8r	.	8ddd\L	.	8r	.	8r	.	8r	.	8ddd\L	.	4.r	.
.	.	8f#/L 8a	.	16.aa\L	.	8d/L	.	8f#\L	.	8f#/L	.	16.aa\L	.	.	.
.	.	.	.	32ff#\JJk	.	.	.	.	.	.	.	32ff#\JJk	.	.	.
8r	.	8f#/J 8a	.	8dd\	.	8d/J	.	8f#\J	.	8a/J	.	8dd\	.	.	.
!LO:LB:g=original	!	!	!	!LO:LB:g=original	!	!	!	!	!	!	!	!	!	!	!
=21	=21	=21	=21	=21	=21	=21	=21	=21	=21	=21	=21	=21	=21	=21	=21
*	*	*tremolo	*	*	*	*tremolo	*	*tremolo	*	*	*	*	*	*	*
!	!LO:DY:rj	!	!LO:DY:rj	!	!LO:DY:rj	!	!LO:DY:rj	!	!LO:DY:rj	!	!LO:DY:rj	!	!	!	!LO:DY:rj
8D\L	ff	8f#/ 8aL	ff	16.f#\LL 16.dd	ff	8d/L	ff	8f#\L	ff	16.f#/LL	f	16.dd\LL	.	16.dd\LL	ff
.	.	.	.	32cc#\JJk 32ee	.	.	.	.	.	32cc#/JJk	.	32ee\K	.	32ee\K	.
8d\	.	8f#/ 8a	.	16.dd\LL 16.ff#	.	8d/	.	8f#\	.	16.dd\LL	.	16.ff#\	.	16.ff#\	.
.	.	.	.	32ee\JJk 32gg	.	.	.	.	.	32ee\K	.	32gg\K	.	32gg\K	.
8d\J	.	8f#/ 8aJ	.	16.ff#\LL 16.aa	.	8d/J	.	8f#\J	.	16.ff#\	.	16.aa\	.	16.aa\	.
.	.	.	.	32gg\JJk 32bb	.	.	.	.	.	32gg\JJk	.	32bb\JJk	.	32bb\JJk	.
!	!	!	!	!	!	!	!	!	!	!LO:LB:g=original	!	!	!	!	!
*	*	*Xtremolo	*	*	*	*Xtremolo	*	*	*	*	*	*	*	*	*
=22	=22	=22	=22	=22	=22	=22	=22	=22	=22	=22	=22	=22	=22	=22	=22
!	!	!	!	!	!	!	!	!	!	!	!	!	!	!LO:SIC:s=16.aa	!
8D\	.	8f#/ 8a	.	16.aa\LL	.	8d/	.	8f#\	.	8ff#\	.	8aa\	.	16cc#\LL 16aa	.
.	.	.	.	.	.	.	.	.	.	.	.	.	.	32ryy	.
.	.	.	.	32fff#\JJk	.	.	.	.	.	.	.	.	.	32fff#\JJk	.
4D^<\ 4d	.	4f#^</ 4a	.	4ddd^<\	.	4dd^<\	.	4f#\	.	4ff#\	.	4aa\	.	4ddd^<\	.
=23	=23	=23	=23	=23	=23	=23	=23	=23	=23	=23	=23	=23	=23	=23	=23
*	*	*	*	*	*	*tremolo	*	*	*	*tremolo	*	*tremolo	*	*	*
8A\L	.	8r	.	16.bb\LL	.	8a/L	.	8e\L	.	8g/L	.	8cc#\L	.	16.bb\LL	.
.	.	.	.	32aa\JJk	.	.	.	.	.	.	.	.	.	32aa\K	.
8A\	.	8g/L 8a	.	16.gg#X\LL	.	8a/	.	8e\	.	8g/	.	8cc#\	.	16.gg#X\	.
.	.	.	.	32aa\JJk	.	.	.	.	.	.	.	.	.	32aa\K	.
8A\J	.	8g/J 8a	.	16.ee\LL	.	8a/J	.	8e\J	.	8g/J	.	8cc#\J	.	16.ee\	.
.	.	.	.	32ggn\JJk	.	.	.	.	.	.	.	.	.	32ggn\JJk	.
*	*	*	*	*	*	*Xtremolo	*	*Xtremolo	*	*Xtremolo	*	*Xtremolo	*	*	*
=24	=24	=24	=24	=24	=24	=24	=24	=24	=24	=24	=24	=24	=24	=24	=24
8d\	.	8f#/ 8a	.	16.ff#\LL	.	8dd\	.	8f#\	.	8f#/	.	8dd\	.	16.ff#\LL	.
.	.	.	.	32cc#\JJk	.	.	.	.	.	.	.	.	.	32ccc#\JJk	.
4D^</	.	4f#^</ 4a	.	4dd\	.	4d/	.	4d\	.	4f#/	.	4dd\	.	4ddd\	.
=25:|!|:	=25:|!|:	=25:|!|:	=25:|!|:	=25:|!|:	=25:|!|:	=25:|!|:	=25:|!|:	=25:|!|:	=25:|!|:	=25:|!|:	=25:|!|:	=25:|!|:	=25:|!|:	=25:|!|:	=25:|!|:
*>C	*	*>C	*	*>C	*	*>C	*	*>C	*	*>C	*	*>C	*	*>C	*
*k[f#]	*	*k[f#]	*	*k[f#]	*	*k[f#c#]	*	*	*	*k[f#]	*	*k[f#]	*	*k[f#]	*
*	*	*	*	*^	*	*	*	*	*	*	*	*	*	*	*
!	!	!	!	!	!	!	!	!	!	!	!LO:TX:t=P:problem:brak oznaczenia zmiany tonacji	!	!	!	!	!
!	!	!	!	!LO:TX:a:t=Flauto	!	!	!LO:TX:a:t=8	!	!LO:TX:a:t=8	!	!LO:TX:a:t=8	!	!	!	!LO:TX:t=P:problem:przy zmianie tonacji, oznaczony jedynie kasownik	!
4G\	p	8r	p	8.dd/L	8r	.	4.r	.	4.r	.	4.r	.	8.dd\L	.	8.ddd\L	.
.	.	8B/L 8d	.	.	8g\L	.	.	.	.	.	.	.	.	.	.	.
.	.	.	.	16ee/Jk	.	.	.	.	.	.	.	.	16ee\L	.	16eee\Jk	.
8r	.	8B/J 8d	.	16dd/LL	8g\J	.	.	.	.	.	.	.	16dd\	.	16ddd\LL	.
.	.	.	.	16b/JJ	.	.	.	.	.	.	.	.	16cc\JJ	.	16bb\JJ	.
!	!	!	!	!	!	!	!	!	!	!	!	!	!LO:LB:g=original	!	!LO:LB:g=original	!
=26	=26	=26	=26	=26	=26	=26	=26	=26	=26	=26	=26	=26	=26	=26	=26	=26
*	*	*	*	*	*	*	*	*	*	*	*	*	*tuplet	*	*	*
!	!	!	!	!	!	!	!	!	!	!	!	!	!LO:TUP:a	!	!LO:TUP:a	!
4C/	.	8r	.	24a/LL	8r	.	4.r	.	4.r	.	4.r	.	24a\LL	.	24aa\LL	.
.	.	.	.	24b/	.	.	.	.	.	.	.	.	24b\	.	24bb\	.
.	.	.	.	24cc/JJ	.	.	.	.	.	.	.	.	24cc\JJ	.	24ccc\JJ	.
.	.	8c/L 8e	.	8e/L	8a\L	.	.	.	.	.	.	.	8e/L	.	8ee\L	.
!	!	!	!	!	!LO:TX:t=P:problem:note position	!	!	!	!	!	!	!	!	!	!	!
8r	.	8c/J 8e	.	8a/J	8a\J	.	.	.	.	.	.	.	8a/J	.	8aa\J	.
!	!	!LO:LB:g=original	!	!LO:LB:g=original	!LO:LB:g=original	!	!	!	!	!	!	!	!	!	!	!
=27	=27	=27	=27	=27	=27	=27	=27	=27	=27	=27	=27	=27	=27	=27	=27	=27
*	*	*	*	*tuplet	*	*	*	*	*	*	*	*	*	*	*	*
!	!	!	!	!LO:TUP:a	!	!	!	!	!	!	!	!	!LO:TUP:a	!	!LO:TUP:a	!
4D\	.	8r	.	24a/LL	8r	.	4.r	.	4.r	.	4.r	.	24a\LL	.	24aa\LL	.
.	.	.	.	24b/	.	.	.	.	.	.	.	.	24b\	.	24bb\	.
.	.	.	.	24a/JJ	.	.	.	.	.	.	.	.	24a\JJ	.	24aa\JJ	.
!	!	!	!	!	!LO:TX:t=P:problem:note position	!	!	!	!	!	!	!	!	!	!LO:SIC:s=8ff#	!
.	.	8c/L 8d	.	8f#/L	8f#\L	.	.	.	.	.	.	.	8f#/L	.	8ff#\L	.
8r	.	8c/J 8d	.	8d/J	8f#\J	.	.	.	.	.	.	.	8d/J	.	8dd\J	.
=28	=28	=28	=28	=28	=28	=28	=28	=28	=28	=28	=28	=28	=28	=28	=28	=28
4G\	.	8r	.	4dd/	8r	.	4.r	.	4.r	.	4.r	.	4dd\	.	4ddd\	.
.	.	8B/L 8d	.	.	8g\L	.	.	.	.	.	.	.	.	.	.	.
8r	.	8B/J 8d	.	8b/	8g\J	.	.	.	.	.	.	.	8b\	.	8bb\	.
=29	=29	=29	=29	=29	=29	=29	=29	=29	=29	=29	=29	=29	=29	=29	=29	=29
4G\	.	8r	.	8.dd/L	8r	.	4.r	.	4.r	.	4.r	.	8.dd\L	.	8.ddd\L	.
.	.	8B/L 8d	.	.	8g\L	.	.	.	.	.	.	.	.	.	.	.
.	.	.	.	16gg/Jk	.	.	.	.	.	.	.	.	16gg\L	.	16ggg\Jk	.
8r	.	8B/J 8d	.	16dd/LL	8g\J	.	.	.	.	.	.	.	16dd\	.	16ddd\LL	.
.	.	.	.	16b/JJ	.	.	.	.	.	.	.	.	16b\JJ	.	16bb\JJ	.
=30	=30	=30	=30	=30	=30	=30	=30	=30	=30	=30	=30	=30	=30	=30	=30	=30
!	!	!	!	!LO:TUP:a	!	!	!	!	!	!	!	!	!LO:TUP:a	!	!LO:TUP:a	!
4C/	.	8r	.	24a/LL	8r	.	4.r	.	4.r	.	4.r	.	24a\LL	.	24aa\LL	.
.	.	.	.	24b/	.	.	.	.	.	.	.	.	24b\	.	24bb\	.
.	.	.	.	24cc/JJ	.	.	.	.	.	.	.	.	24cc\JJ	.	24ccc\JJ	.
.	.	8c/L 8e	.	8e/L	8a\L	.	.	.	.	.	.	.	8e/L	.	8ee\L	.
!	!	!	!	!	!LO:TX:t=P:problem:note position	!	!	!	!	!	!	!	!	!	!	!
8r	.	8c/J 8e	.	8a/J	8a\J	.	.	.	.	.	.	.	8a/J	.	8aa\J	.
=31	=31	=31	=31	=31	=31	=31	=31	=31	=31	=31	=31	=31	=31	=31	=31	=31
4D\	.	8r	.	16.a/LL	8r	.	4.r	.	4.r	.	4.r	.	16.a/LL	.	16.aa\LL	.
.	.	.	.	32b/JJk	.	.	.	.	.	.	.	.	32b/K	.	32bb\K	.
.	.	8c/L 8d	.	16.a/LL	8f#\L	.	.	.	.	.	.	.	16.a/	.	16.aa\	.
!	!	!	!	!	!	!	!	!	!	!	!	!	!	!	!LO:SIC:s=32ff#	!
.	.	.	.	32f#/JJk	.	.	.	.	.	.	.	.	32f#/JJk	.	32ff#\JJk	.
!!mixed beam:problem
!	!	!	!	!	!	!	!	!	!	!	!	!	!LO:TX:t=P:problem:mixed beam	!	!	!
8r	.	8c/J 8d	.	16.d/LL	8f#\J	.	.	.	.	.	.	.	16.d/LL	.	16.dd\LL	.
.	.	.	.	32dd/JJk	.	.	.	.	.	.	.	.	32dd\JJk	.	32ddd\JJk	.
!	!	!	!	!	!	!	!	!	!	!	!	!	!LO:LB:g=original	!	!LO:LB:g=original	!
=32	=32	=32	=32	=32	=32	=32	=32	=32	=32	=32	=32	=32	=32	=32	=32	=32
!	!	!	!	!	!	!	!	!	!	!	!	!	!LO:N:vis=8.	!	!LO:SIC:s=16.bb	!
8G\	.	8B/ 8d	.	16.b/LL	8f#\	.	4.r	.	4.r	.	4.r	.	16.b/LL	.	16bb\LL	.
.	.	.	.	.	.	.	.	.	.	.	.	.	.	.	32ryy	.
!	!	!	!	!	!	!	!	!	!	!	!	!	!LO:N:vis=16	!	!LO:SIC:s=32ff#	!
.	.	.	.	32f#/JJk	.	.	.	.	.	.	.	.	32f#/JJk	.	32ff#\JJk	.
!	!	!	!	!	!LO:TX:t=P:problem:note position	!	!	!	!	!	!	!	!	!	!	!
4G^<\	.	4B^>/ 4d	.	4g/	4g\	.	.	.	.	.	.	.	4g/	.	4gg\	.
*	*	*	*	*v	*v	*	*	*	*	*	*	*	*	*	*	*
=:|!	=:|!	=:|!	=:|!	=:|!	=:|!	=:|!	=:|!	=:|!	=:|!	=:|!	=:|!	=:|!	=:|!	=:|!	=:|!
*-	*-	*-	*-	*-	*-	*-	*-	*-	*-	*-	*-	*-	*-	*-	*-
!!!system-decoration: [(g1)][(g2)][(g3)]
!!!ENC:Kamil Watkowski
!!!END:2020-11-09
!!!EED: Jędrzej Mróz
!!!ESR: 2021-11-02
!!!RDF**kern: > = above
!!!RDF**kern: < = below
